X:33
T:Old as the Hills
Z:robin.beech@mcgill.ca
S:Christina Smith, Victoria Bar, Glasgow
R:jig
M:6/8
L:1/8
K:A
A>BA cBA | d2e fga | A>BA cBA | dB=G Bcd | ecA Ace | d2e fga |
ece dBG | ABA A2B :: c2e ecA | cea ecA | c2e ecA | Bcd dcB |
c2e ecA | cde fga | ece dBG | ABA A2B :|
